!!!SOCIAL_FUNCTION:	dream songs
!!!PDT:	1913
!!!OTL: No_148_The_Sky_Will_Resound.krn
!!!REG: Great_Lakes
!!!LANG: Non-Tone
!!!LING_GROUP: Algonquin
**kern	**kern
*staff2	*staff1
=1-	=1-
*clefF4	*clefF4
*k[b-e-]	*k[b-e-]
*M3/4	*M3/4
12GG^/	8.f\L
12r	.
12GG/	.
.	16f\Jk
12GG^/	[2f\
12r	.
12GG/	.
12GG^/	.
12r	.
12GG/	.
=2||	=2||
*M2/4	*M2/4
2r	8f\L]
.	8d\J
.	4B-\
=3||	=3||
*M3/4	*M3/4
2.r	8d\L
.	8f\J
.	4d\
.	8.d\L
.	16c\Jk
=4	=4
2.r	8.B-\L
.	16B-\Jk
.	[2B-\
=5||	=5||
*M2/4	*M2/4
2r	8.B-\L]
.	16d\Jk
.	8d\L
.	8f\J
=6	=6
2r	2d\
=7	=7
2r	8.d\L
.	16d\Jk
.	8.B-\L
.	16d\Jk
=8||	=8||
*M3/4	*M3/4
2.r	8d\L
.	8d\J
.	2B-\
=9||	=9||
*M2/4	*M2/4
2r	12B-\L
.	12F\
.	12F\J
.	8.D\L
.	16B-\Jk
=10||	=10||
*M3/4	*M3/4
2.r	8B-\L
.	8d\J
.	[2B-\
=11||	=11||
*M2/4	*M2/4
2r	8B-\L]
.	8F\J
.	8.D\L
.	16F\Jk
=12||	=12||
*M3/4	*M3/4
2.r	8F\L
.	8G\J
.	[2F\
=13||	=13||
*M2/4	*M2/4
2r	8F\L]
.	8D\J
.	8.BB-/L
.	16D/Jk
=14||	=14||
*M3/4	*M3/4
2.r	8D\L
.	8F\J
.	[4D\
.	8D/L]
.	8C/J
=15	=15
2.r	8.BB-/L
.	16BB-/Jk
.	4.BB-/
.	8BB-/
=16	=16
2.r	2.BB-/
==	==
*-	*-
